svgs/brave_browser.svg

<svg width="192" height="192" viewBox="0 0 192 192" fill="none" xmlns="http://www.w3.org/2000/svg">
<path d="M96 26H74L64 36H55.8784C50.9109 36 46.2252 38.3073 43.1964 42.2446L38 49L44 60L34 76L54.2989 142.433C55.3977 146.029 57.728 149.123 60.8807 151.172L96 174" stroke="black" stroke-width="12" stroke-linecap="round" stroke-linejoin="round"/>
<path d="M96 26H118L128 36H136.122C141.089 36 145.775 38.3073 148.804 42.2446L154 49L148 60L158 76L137.701 142.433C136.602 146.029 134.272 149.123 131.119 151.172L96 174" stroke="black" stroke-width="12" stroke-linecap="round" stroke-linejoin="round"/>
<path d="M76 124L96 112V100L80 92L84.7312 76.4546C85.9938 72.3062 83.7214 67.9071 79.6076 66.5359L66 62" stroke="black" stroke-width="12" stroke-linecap="round" stroke-linejoin="round"/>
<path d="M116 124L96 112V100L112 92L107.269 76.4546C106.006 72.3062 108.279 67.9071 112.392 66.5359L126 62" stroke="black" stroke-width="12" stroke-linecap="round" stroke-linejoin="round"/>
</svg>

<svg width="192" height="192" fill="none" xmlns="http://www.w3.org/2000/svg"><path d="M96 26H74L64 36h-8.122a16 16 0 0 0-12.682 6.245L38 49l6 11-10 16 20.299 66.433a15.998 15.998 0 0 0 6.582 8.739L96 174M96 26h22l10 10h8.122c4.967 0 9.653 2.307 12.682 6.245L154 49l-6 11 10 16-20.299 66.433a15.998 15.998 0 0 1-6.582 8.739L96 174" stroke="#000" stroke-width="12" stroke-linecap="round" stroke-linejoin="round"/><path d="m76 124 20-12v-12l-16-8 4.731-15.545a8 8 0 0 0-5.123-9.92L66 62M116 124l-20-12v-12l16-8-4.731-15.545a8 8 0 0 1 5.123-9.92L126 62" stroke="#000" stroke-width="12" stroke-linecap="round" stroke-linejoin="round"/></svg>
